src/blocks/sprite-svg--localstorage/svg/file.svg

<?xml version="1.0" encoding="UTF-8" standalone="no"?>
<svg width="24px" height="28px" viewBox="0 0 24 28" version="1.1" xmlns="http://www.w3.org/2000/svg" xmlns:xlink="http://www.w3.org/1999/xlink">
    <!-- Generator: sketchtool 41.1 (35376) - http://www.bohemiancoding.com/sketch -->
    <title>25A792AE-84A8-4D81-9760-485069F95C8A</title>
    <desc>Created with sketchtool.</desc>
    <defs>
        <polygon id="path-1" points="0.018 0.036 0.018 27.8997 23.952 27.8997 23.952 0.036 0.018 0.036"></polygon>
    </defs>
    <g id="Страница-собрания" stroke="none" stroke-width="1" fill="none" fill-rule="evenodd">
        <g id="Страница-собрания---повестка" transform="translate(-448.000000, -1295.000000)">
            <g id="Group-2" transform="translate(379.000000, 748.000000)">
                <g id="Group-6" transform="translate(0.000000, 97.000000)">
                    <g id="Group-5" transform="translate(69.000000, 445.000000)">
                        <g id="Group-4">
                            <g id="file" transform="translate(0.000000, 5.000000)">
                                <g id="Group-3">
                                    <mask id="mask-2" fill="white">
                                        <use xlink:href="#path-1"></use>
                                    </mask>
                                    <g id="Clip-2"></g>
                                    <path d="M0.9843,27.8997 L22.9677,27.8997 C23.5194,27.8997 23.952,27.4683 23.952,26.9166 L23.952,1.0203 C23.952,0.4683 23.5194,0.036 22.9677,0.036 L6.4806,0.036 C6.4077,0.036 6.3117,0.036 6.2403,0.0594 C6.2157,0.0594 6.1923,0.084 6.1923,0.084 C6.1194,0.1074 6.0714,0.132 6,0.1554 C5.9766,0.18 5.952,0.18 5.9286,0.2037 C5.856,0.2517 5.7843,0.2997 5.7363,0.3723 L0.2403,6.8517 C0.1677,6.9243 0.1194,7.0203 0.0714,7.1166 C0.048,7.14 0.048,7.188 0.048,7.2126 C0.0234,7.284 0.0234,7.3554 0,7.4283 L0,26.892 C0,27.4683 0.456,27.8997 0.9843,27.8997 Z M5.496,3.7074 L5.496,6.54 L3.096,6.54 L5.496,3.7074 Z M1.9677,8.484 L6.4806,8.484 C7.0323,8.484 7.4637,8.0517 7.4637,7.4997 L7.4637,2.0037 L21.9843,2.0037 L21.9843,25.932 L1.9677,25.932 L1.9677,8.484 Z" id="Fill-1" fill="#FF9000" mask="url(#mask-2)"></path>
                                </g>
                                <text id="zip" font-family="HelveticaNeueCyr-Bold, HelveticaNeueCyr" font-size="10" font-weight="bold" line-spacing="21" fill="#FF9000">
                                    <tspan x="4" y="15">zip</tspan>
                                </text>
                            </g>
                        </g>
                    </g>
                </g>
            </g>
        </g>
    </g>
</svg>

<svg width="24" height="28" viewBox="0 0 24 28" xmlns="http://www.w3.org/2000/svg" xmlns:xlink="http://www.w3.org/1999/xlink"><title>25A792AE-84A8-4D81-9760-485069F95C8A</title><defs><path id="a" d="M.018.036V27.9h23.934V.036H.018z"/></defs><g fill="none" fill-rule="evenodd"><mask id="b" fill="#fff"><use xlink:href="#a"/></mask><path d="M.984 27.9h21.984a.973.973 0 0 0 .984-.983V1.02a.974.974 0 0 0-.984-.984H6.48c-.073 0-.17 0-.24.023-.025 0-.049.025-.049.025-.073.023-.12.048-.192.071-.023.025-.048.025-.071.049a.635.635 0 0 0-.193.168L.24 6.852a.989.989 0 0 0-.169.265c-.023.023-.023.071-.023.096-.025.071-.025.142-.048.215v19.464A.993.993 0 0 0 .984 27.9zM5.496 3.707V6.54h-2.4l2.4-2.833zM1.968 8.484H6.48a.973.973 0 0 0 .983-.984V2.004h14.52v23.928H1.968V8.484z" fill="#FF9000" mask="url(#b)"/><text font-family="HelveticaNeueCyr-Bold, HelveticaNeueCyr" font-size="10" font-weight="bold" fill="#FF9000"><tspan x="4" y="15">zip</tspan></text></g></svg>
